X:1
T:Title
%%score 1 2
L:1/8
Q:1/4=107
M:4/4
K:Bb
V:1 treble nm="Grand Piano, Soprano"
V:2 bass nm="Choir Pad, From the Cyber Hymnal™"
V:1
 [DF]2 [DF]2 [DF]2 [B,D][CE] | [DF]2 [DB]2 [DB]2 [DF]2 | [EG]2 [EG]2 [EG]2 EF | %3
w: By~William~James~Kirkpatrick * * * *|||
 [EG]2 [=Ec]2 [_Ec]2 [EF]2 | [DF]2 [DF]2 [DF]2 [B,D][CE] | [DF]2 [Fd]2 [Ed]2 [Ec]2 | %6
w: |||
 [DB]2 [FA]2 [EG]2 [EF]2 | [EG]2 [EA]2 [DB]4 | [Ec]2 [EF]2 [EF]2 G/A/B/c/ | [Fd]2 [DB]2 [DB]2 z2 | %10
w: ||||
 [Ge]2 [Gd][Gd] [Gc]2 [GB]2 | [FA]2 [=EB]2 [_Ec]2 [EF]2 | [DB]2 [DB]2 [Fd]2 z2 | %13
w: |||
 [Ec]2 [Ec]2 [Ge]2 z2 | [Fd]2 [FB]2 [FA]2 [FB]2 | [Fd]2 [Ec]2 [DB]4- | [DB]4 z4 |] %17
w: ||||
V:2
 [B,,B,]2 [B,,B,]2 [B,,B,]2 [B,,F,]2 | [B,,F,]2 [B,,F,]2 [B,,F,]2 [B,,B,]2 | %2
 [E,B,]2 [E,B,]2 [E,B,]2 [E,G,]2 | [E,G,]2 [C,G,]2 [F,A,]2 [F,A,]2 | %4
 [B,,B,]2 [B,,B,]2 [B,,B,]2 [B,,F,]2 | [B,,B,]2 [B,,_A,]2 [E,G,]2 [E,G,]2 | %6
 F,2 [F,B,]2 [F,B,]2 [F,A,]2 | [F,B,]2 [F,C]2 [B,,B,]4 | [F,A,]2 [F,A,]2 [F,A,]2 z2 | %9
 [B,,B,]2 [B,,F,]2 [B,,F,]2 z2 | [C,C]2 [D,=B,][D,B,] [E,C]2 [=E,C]2 | %11
 [F,C]2 [G,C]2 [A,C]2 [F,A,]2 | [B,,F,]2 [B,,F,]2 [B,,B,]2 z2 | [E,G,]2 [E,G,]2 [C,C]2 z2 | %14
 [F,B,]2 [F,D]2 [F,C]2 [F,D]2 | [F,B,]2 [C,F,A,]2 [B,,B,]4- | [B,,B,]4 z4 |] %17

